X:13596
%722
T:AR EIREANN NE NEOSIN CE HI
M:3/4
L:1/8
Q:1/4=90
R:AIR
K:Cmaj
C>D|"C"E G,3 G,2|"Am"A, C3 "G"D2|"C"E4 (3D/2E/2D/2 C|"C"{F}E G,3 G,G,
|!
"Am"A, C3 "C"EC|"G"D3 E/2D/2 "C"C>D|"C"EC G,2 G,2|
%Error : Guitar chord name not properly closed
"F"A,F F3/2G/2"Dm"

%Error : Guitar chord name not properly closed
"f/2 EA|!"
"C"{EG}E3 C "G"DC
%Error : Bar 8 is 5/4 not 3/4
|"Am"A,2 "C"G,2 F,G,|"Am"A, C2 B, "G"DB,|"C"C4 E>F|!
"C"G2 {EG}E2 "G"DB,|"C"C2 E2 G2|"Am"A4 c>A|"C"G2 E3 {FE}D
|!
"C"C3 D EC|"G"D4 "C"C>D|"C"EC G,2 G,2|"Am"A, C3 "Dm"DF|!
"C"E3 C "G"DC|"Am"A,2 "C"{G,B,}G,2 F,G,|"Am"A, C2 B, "G"DB,|"C"C4 "G"(3B,CD|!
"C"E G,3 "Em"B,G,|"Am"A, C3 "G"D2|"C"{EG}E3 C ED|"C"E G,3 "Em"(3G,B,G,|!
"Am"A, C3 "C"EC|"G"D4 "C"(3CCD|"C"E G,3 "G"(3DCB,|"F"A, F3 "Dm"DF|!
"C"E3 F "G"DC|"Am"A,2 "C"G,2 F,G,|"Am"A, C2 B, "G"(3DCB,|"C"C4 EF|!
"C"G2 E2 "Dm"(3FED|"C"C2 E2 G2|"Am"{Ac}A4 "Em"(3BcB|"C"G2 E3
E|!
"C"CG, CE GC|"G"D4 "F"(3FGF|"C"EC G,2 F,G,|"Am"A, E3 "Dm"(3DEF|!
"C"E4 "G"D/2E/2D/2C/2|"Am"A,2 "C"G,2 (3E,F,G,|"Am"A, C2 B, "G"DB,|"C"C4
%Error : Bar 47 is 1/2 not 3/4
|!


